X:188
T:Steirische aus Altaussee (2.)
C:traditionell
R:Steirer
A:Altaussee, Salzkammergut
B:"Pfeiermusik aus dem Salzkammergut", zus. A.Ruttner durch V.Derschmidt revidierte Ausgabe, Verlag E. Friedhuber, Wels, 2000
S:im buch mit der angabe: aus einem alten Notenheft 1927 abgeschrieben
N:im buch ganz in G, nr.15/2, zweistimmig, erster ton 1. stimme d'', erster ton 2. stimme h'
Z:abc transcripton Simon Wascher
M:3/4
L:1/8
K:G
V:1
P:2
(dc) |\
Bz Az Bz | (ABcBAB) | cz Bz cz | (BcdcBc) |\
dz gz bz | (abc'bag | f2) (afdc "&"| B2) z2 :|
V:2
(BA) |\
Gz Fz Gz | (FGAG FG) | Az Gz Az | (GABAGA) |\
Bz dz gz | (fgagfe | d2) (FAdA "&"| G2) z2 :|
